!!!OTL: ICH TRAU AUF GOTT
!!!ARE: Europa, Mitteleuropa, Deutschland, Westfalen, Paderborn
!!!SCT: E2017
!!!YEM: Copyright 1995, estate of Helmut Schaffrath.
**kern
*ICvox
*Ivox
*M2/4
*k[b-e-]
*g:
{8g
8a
=1
4b-
8cc
8b-
=2
4a
4dd
=3
4cc
4b-
=4
2a}
=5
{4b-
8a
8g
=6
4f#
8g
8b-
=7
2a
=8
4d}
{8g
8a
=9
4b-
8cc
8b-
=10
4a
4dd
=11
4cc
4b-
=12
2a}
=13
{4b-
8a
8g
=14
4f#
8g
8b-
=15
2a
=16
4d
4r}
=17
{4dd
8cc
8b-
=18
4cc
4fn
=19
4dd
8cc
8b-
=20
4cc
4fn}
=21
{8g
8a
8b-
8cc
=22
4dd
8g
8a
=23
4b-
4a
=24
4g}
==
!!!AGN: geistlich, Gebet, Jesus - Lied
!!!ONB: ESAC (Essen Associative Code) Database: ERK3
!!!AMT: simple duple
!!!AIN: vox
!!!EED: Helmut Schaffrath
!!!EEV: 1.0
*-
